dist/media/images/smiley.svg

<svg xmlns="http://www.w3.org/2000/svg" width="30" height="32" viewBox="0 0 30 32" fill="none">
<g filter="url(#filter0_d_100_1534)">
<path d="M14.0462 29.0261C21.8037 29.0261 28.0924 22.7464 28.0924 14.9999C28.0924 7.2534 21.8037 0.973633 14.0462 0.973633C6.2887 0.973633 0 7.2534 0 14.9999C0 22.7464 6.2887 29.0261 14.0462 29.0261Z" fill="white"/>
<path d="M27.7311 14.9999C27.7311 22.5463 21.6046 28.6648 14.0462 28.6648C6.48775 28.6648 0.36129 22.5463 0.36129 14.9999C0.36129 7.45342 6.48775 1.33492 14.0462 1.33492C21.6046 1.33492 27.7311 7.45342 27.7311 14.9999Z" stroke="#3B0F46" stroke-width="0.722581"/>
</g>
<path d="M22.245 14.5753L22.2469 14.5663L22.2482 14.5572C22.2587 14.4806 22.285 14.4072 22.3254 14.3416C22.3658 14.2761 22.4194 14.2198 22.4828 14.1763C22.5462 14.1328 22.6178 14.1032 22.6932 14.0892C22.768 14.0754 22.8449 14.0773 22.9189 14.0948C23.0704 14.1338 23.203 14.2267 23.2917 14.3565C23.3789 14.4842 23.4178 14.639 23.4014 14.793C22.9613 16.9421 21.8045 18.8766 20.1217 20.2778C18.4361 21.6813 16.3236 22.4656 14.1336 22.5012C11.9436 22.5368 9.80693 21.8216 8.07689 20.4736C6.34768 19.1263 5.12817 17.2274 4.61994 15.0906C4.58917 14.9429 4.61681 14.789 4.69695 14.6615C4.77756 14.5332 4.90478 14.4418 5.05134 14.4066L5.05918 14.4047L5.06689 14.4023C5.14169 14.3793 5.22046 14.3723 5.2981 14.3818C5.37581 14.3913 5.45062 14.4171 5.51769 14.4575C5.58484 14.498 5.64284 14.5522 5.68782 14.6166C5.73282 14.6811 5.76384 14.7544 5.7788 14.8318L5.77851 14.8318L5.78148 14.844C6.23694 16.7079 7.30991 18.3616 8.82484 19.5339C10.3398 20.7063 12.2068 21.3279 14.1201 21.2967C16.0334 21.2654 17.8793 20.5832 19.3554 19.362C20.8315 18.1408 21.8503 16.4531 22.245 14.5753Z" fill="#3B0F46" stroke="#3B0F46" stroke-width="0.516129"/>
<path d="M9.39107 9.92987C9.12841 9.67347 8.97289 9.32413 8.95747 8.95418C8.97289 8.58422 9.12841 8.23489 9.39107 7.97849C9.65578 7.72008 10.0086 7.57618 10.3752 7.57618C10.7418 7.57618 11.0946 7.72008 11.3594 7.97849C11.622 8.23488 11.7775 8.5842 11.7929 8.95418C11.7775 9.32415 11.622 9.67348 11.3594 9.92987C11.0946 10.1883 10.7418 10.3322 10.3752 10.3322C10.0086 10.3322 9.65578 10.1883 9.39107 9.92987Z" fill="#3B0F46" stroke="#3B0F46" stroke-width="0.516129"/>
<path d="M17.4522 7.57638L17.4522 7.57653L17.461 7.57638C17.6466 7.57323 17.831 7.60666 18.0037 7.67471C18.1764 7.74276 18.3338 7.84407 18.467 7.97284L18.6394 7.79454L18.467 7.97284C18.6003 8.10163 18.7067 8.25531 18.7802 8.42507C18.8529 8.59283 18.892 8.77309 18.8954 8.95577C18.8805 9.32441 18.7236 9.67334 18.457 9.92984C18.1888 10.1879 17.8306 10.3322 17.4576 10.3322C17.0847 10.3322 16.7264 10.1879 16.4583 9.92984C16.1916 9.67331 16.0347 9.3243 16.0199 8.9556C16.023 8.77303 16.0619 8.59279 16.1344 8.425C16.2077 8.25527 16.3139 8.1016 16.447 7.97283C16.58 7.84407 16.7373 7.74273 16.9098 7.67468C17.0823 7.60664 17.2666 7.57323 17.4522 7.57638Z" fill="#3B0F46" stroke="#3B0F46" stroke-width="0.516129"/>
<defs>
<filter id="filter0_d_100_1534" x="0" y="0.973633" width="29.2278" height="30.3751" filterUnits="userSpaceOnUse" color-interpolation-filters="sRGB">
<feFlood flood-opacity="0" result="BackgroundImageFix"/>
<feColorMatrix in="SourceAlpha" type="matrix" values="0 0 0 0 0 0 0 0 0 0 0 0 0 0 0 0 0 0 127 0" result="hardAlpha"/>
<feOffset dx="1.13548" dy="2.32258"/>
<feComposite in2="hardAlpha" operator="out"/>
<feColorMatrix type="matrix" values="0 0 0 0 0.231373 0 0 0 0 0.0588235 0 0 0 0 0.27451 0 0 0 1 0"/>
<feBlend mode="normal" in2="BackgroundImageFix" result="effect1_dropShadow_100_1534"/>
<feBlend mode="normal" in="SourceGraphic" in2="effect1_dropShadow_100_1534" result="shape"/>
</filter>
</defs>
</svg>

<svg xmlns="http://www.w3.org/2000/svg" width="30" height="32" fill="none"><g filter="url(#filter0_d_100_1534)"><path d="M14.046 29.026c7.758 0 14.046-6.28 14.046-14.026 0-7.747-6.288-14.026-14.046-14.026C6.29.974 0 7.254 0 15c0 7.746 6.289 14.026 14.046 14.026z" fill="#fff"/><path d="M27.731 15c0 7.546-6.126 13.665-13.685 13.665C6.488 28.665.361 22.546.361 15c0-7.547 6.127-13.665 13.685-13.665 7.559 0 13.685 6.118 13.685 13.665z" stroke="#3B0F46" stroke-width=".723"/></g><path d="M22.245 14.575l.002-.009.001-.009a.555.555 0 01.445-.468.549.549 0 01.226.006.647.647 0 01.482.698 9.658 9.658 0 01-3.28 5.485 9.6 9.6 0 01-12.045.196A9.655 9.655 0 014.62 15.09a.583.583 0 01.431-.684l.008-.002.008-.003a.557.557 0 01.712.43h0l.002.012a8.472 8.472 0 003.044 4.69 8.427 8.427 0 0010.53-.172 8.474 8.474 0 002.89-4.787zM9.391 9.93a1.448 1.448 0 01-.434-.976c.016-.37.171-.72.434-.976a1.409 1.409 0 011.968 0c.263.257.418.606.434.976-.015.37-.171.72-.434.976a1.409 1.409 0 01-1.968 0zm8.061-2.354h.009a1.415 1.415 0 011.006.397l.172-.178-.172.178a1.405 1.405 0 01.428.983 1.441 1.441 0 01-2.875 0 1.397 1.397 0 01.89-1.281c.172-.068.357-.102.542-.099z" fill="#3B0F46" stroke="#3B0F46" stroke-width=".516"/><defs><filter id="filter0_d_100_1534" x="0" y=".974" width="29.228" height="30.375" filterUnits="userSpaceOnUse" color-interpolation-filters="sRGB"><feFlood flood-opacity="0" result="BackgroundImageFix"/><feColorMatrix in="SourceAlpha" values="0 0 0 0 0 0 0 0 0 0 0 0 0 0 0 0 0 0 127 0" result="hardAlpha"/><feOffset dx="1.135" dy="2.323"/><feComposite in2="hardAlpha" operator="out"/><feColorMatrix values="0 0 0 0 0.231373 0 0 0 0 0.0588235 0 0 0 0 0.27451 0 0 0 1 0"/><feBlend in2="BackgroundImageFix" result="effect1_dropShadow_100_1534"/><feBlend in="SourceGraphic" in2="effect1_dropShadow_100_1534" result="shape"/></filter></defs></svg>
